Newaita-dark/apps/48/alienarena.svg

<svg height="48pt" viewBox="0 0 48 48" width="48pt" xmlns="http://www.w3.org/2000/svg" xmlns:xlink="http://www.w3.org/1999/xlink"><linearGradient id="a" gradientUnits="userSpaceOnUse" x1="23.81478" x2="23.81478" y1="42.0509045" y2="44.03547050005"><stop offset="0" stop-opacity=".27451"/><stop offset="1" stop-opacity="0"/></linearGradient><linearGradient id="b"><stop offset="0" stop-opacity=".313726"/><stop offset=".222222" stop-opacity=".27451"/><stop offset="1" stop-opacity="0"/></linearGradient><radialGradient id="c" cx="450.908936" cy="189.579361" gradientTransform="matrix(.00000026 -.117199 -.210958 -.00000015 64.30402 95.392999)" gradientUnits="userSpaceOnUse" r="21.166656" xlink:href="#b"/><radialGradient id="d" cx="450.908936" cy="189.579361" gradientTransform="matrix(-.00000026 .117199 .210958 .00000015 -16.674472 -11.291218)" gradientUnits="userSpaceOnUse" r="21.166656" xlink:href="#b"/><radialGradient id="e" cx="450.908936" cy="189.579361" gradientTransform="matrix(-.00000026 -.117199 .210958 -.00000015 -16.674472 95.392999)" gradientUnits="userSpaceOnUse" r="21.166656" xlink:href="#b"/><radialGradient id="f" cx="450.908936" cy="189.579361" gradientTransform="matrix(.00000026 .117199 -.210958 .00000015 64.304017 -11.291219)" gradientUnits="userSpaceOnUse" r="21.166656" xlink:href="#b"/><linearGradient id="g" gradientUnits="userSpaceOnUse" x1="24.574112235" x2="24.80705371892" y1="41.89454457653" y2="4.34416572789"><stop offset="0" stop-color="#66bb6a"/><stop offset="1" stop-color="#81c784"/></linearGradient><linearGradient id="h"><stop offset="0" stop-color="#272b2d"/><stop offset="1" stop-color="#33393e"/></linearGradient><linearGradient id="i" gradientUnits="userSpaceOnUse" x1="18.215165" x2="18.215165" xlink:href="#h" y1="28.415634" y2="18.960764"/><linearGradient id="j" gradientTransform="matrix(-.945487 0 0 .945487 46.433151 -3.730924)" gradientUnits="userSpaceOnUse" x1="18" x2="18" xlink:href="#h" y1="34" y2="24"/><path d="m22.824219 41.902344h1.984375v2.207031h-1.984375zm0 0" fill="url(#a)"/><path d="m24.808594 42.050781h3.96875v-1.984375h-3.96875zm0 0" fill="url(#c)"/><path d="m22.824219 42.050781h-3.972657v1.984375h3.972657zm0 0" fill="url(#d)"/><path d="m22.824219 42.050781h-3.972657v-1.984375h3.972657zm0 0" fill="url(#e)"/><path d="m24.808594 42.050781h3.96875v1.984375h-3.96875zm0 0" fill="url(#f)"/><path d="m8.929688 18.988281c0 9.636719 7.957031 22.964844 14.984374 22.964844 6.617188 0 14.984376-13.328125 14.984376-22.964844s-6.710938-14.496093-14.984376-14.496093c-8.273437 0-14.984374 4.859374-14.984374 14.496093zm0 0" fill="url(#g)"/><path d="m23.914062 4.492188c-8.273437 0-14.984374 4.859374-14.984374 14.496093 0 .125.003906.25.003906.375.191406-9.363281 6.824218-14.082031 14.980468-14.082031s14.789063 4.71875 14.980469 14.078125c0-.125.003907-.25.003907-.371094 0-9.636719-6.710938-14.496093-14.984376-14.496093zm0 0" fill="#fff" fill-opacity=".392157"/><path d="m38.890625 18.445312c-.28125 9.589844-8.472656 22.464844-14.976563 22.464844-6.90625 0-14.707031-12.871094-14.976562-22.460937-.003906.179687-.007812.359375-.007812.539062 0 9.636719 7.957031 22.964844 14.984374 22.964844 6.617188 0 14.984376-13.328125 14.984376-22.964844 0-.183593-.003907-.363281-.007813-.542969zm0 0" fill-opacity=".235294"/><path d="m95.240905-12.477673c0 102.781851 84.866896 244.934943 159.818071 244.934943 70.576594 0 159.818072-142.153092 159.818072-244.934943 0-102.781852-71.576498-154.610236-159.818072-154.610236-88.241573 0-159.818071 51.828384-159.818071 154.610236zm0 0" fill="none" stroke="#212121" stroke-width="3" transform="matrix(.093759 0 0 .093759 0 20.158175)"/><path d="m12.710938 19.257812c2.457031-.515624 5.125.171876 7.035156 2.054688s2.605468 4.511719 2.085937 6.9375c-2.460937.515625-5.128906-.171875-7.039062-2.054688-1.910157-1.882812-2.605469-4.511718-2.082031-6.9375zm0 0" fill="url(#i)"/><path d="m34.921875 19.257812c-2.460937-.515624-5.125.171876-7.039063 2.054688-1.910156 1.882812-2.601562 4.511719-2.082031 6.9375 2.457031.515625 5.125-.171875 7.035157-2.054688 1.910156-1.882812 2.605468-4.511718 2.085937-6.9375zm0 0" fill="url(#j)"/><path d="m29.769531 21.214844c-.539062-.144532-1.125.046875-1.542969.566406-.417968.519531-.570312 1.246094-.457031 1.917969.539063.140625 1.125-.046875 1.542969-.570313.417969-.519531.570312-1.246094.457031-1.914062zm0 0" fill="#fff" fill-opacity=".196078"/><path d="m15.890625 21.214844c-.539063-.144532-1.121094.046875-1.542969.566406-.417968.519531-.570312 1.246094-.457031 1.917969.539063.140625 1.125-.046875 1.542969-.570313.417968-.519531.570312-1.246094.457031-1.914062zm0 0" fill="#fff" fill-opacity=".196078"/><g fill="none" stroke="#212121" stroke-width="3" transform="matrix(.093759 0 0 .093759 0 20.158175)"><path d="m135.570387-9.602948c26.205831-5.499475 54.661447 1.833159 75.034501 21.914574 20.373055 20.081416 27.789013 48.120405 22.247876 73.992934-26.247494 5.499475-54.70311-1.833158-75.076164-21.914574-20.373055-20.081415-27.789013-48.120404-22.206213-73.992934zm0 0"/><path d="m372.464431-9.602948c-26.247493-5.499475-54.661446 1.833159-75.076163 21.914574-20.373055 20.081416-27.747351 48.120405-22.206213 73.992934 26.205831 5.499475 54.661447-1.833158 75.034501-21.914574 20.373054-20.081415 27.789013-48.120404 22.247875-73.992934zm0 0"/></g></svg>

<?xml version="1.0" encoding="UTF-8"?>
<svg xmlns="http://www.w3.org/2000/svg" xmlns:xlink="http://www.w3.org/1999/xlink" width="48pt" height="48pt" viewBox="0 0 48 48" version="1.1">
<defs>
<linearGradient id="linear0" gradientUnits="userSpaceOnUse" x1="254" y1="233.5" x2="254" y2="254.666672" gradientTransform="matrix(0.093759,0,0,0.093759,-0.00000572259,20.158178)">
<stop offset="0" style="stop-color:rgb(0%,0%,0%);stop-opacity:0.27451;"/>
<stop offset="1" style="stop-color:rgb(0%,0%,0%);stop-opacity:0;"/>
</linearGradient>
<radialGradient id="radial0" gradientUnits="userSpaceOnUse" cx="450.908936" cy="189.579361" fx="450.908936" fy="189.579361" r="21.166656" gradientTransform="matrix(0.000000261256,-0.117199,-0.210958,-0.000000152308,64.30402,95.392999)">
<stop offset="0" style="stop-color:rgb(0%,0%,0%);stop-opacity:0.313726;"/>
<stop offset="0.222222" style="stop-color:rgb(0%,0%,0%);stop-opacity:0.27451;"/>
<stop offset="1" style="stop-color:rgb(0%,0%,0%);stop-opacity:0;"/>
</radialGradient>
<radialGradient id="radial1" gradientUnits="userSpaceOnUse" cx="450.908936" cy="189.579361" fx="450.908936" fy="189.579361" r="21.166656" gradientTransform="matrix(-0.000000261256,0.117199,0.210958,0.000000152308,-16.674472,-11.291218)">
<stop offset="0" style="stop-color:rgb(0%,0%,0%);stop-opacity:0.313726;"/>
<stop offset="0.222222" style="stop-color:rgb(0%,0%,0%);stop-opacity:0.27451;"/>
<stop offset="1" style="stop-color:rgb(0%,0%,0%);stop-opacity:0;"/>
</radialGradient>
<radialGradient id="radial2" gradientUnits="userSpaceOnUse" cx="450.908936" cy="189.579361" fx="450.908936" fy="189.579361" r="21.166656" gradientTransform="matrix(-0.000000261256,-0.117199,0.210958,-0.000000152308,-16.674472,95.392999)">
<stop offset="0" style="stop-color:rgb(0%,0%,0%);stop-opacity:0.313726;"/>
<stop offset="0.222222" style="stop-color:rgb(0%,0%,0%);stop-opacity:0.27451;"/>
<stop offset="1" style="stop-color:rgb(0%,0%,0%);stop-opacity:0;"/>
</radialGradient>
<radialGradient id="radial3" gradientUnits="userSpaceOnUse" cx="450.908936" cy="189.579361" fx="450.908936" fy="189.579361" r="21.166656" gradientTransform="matrix(0.000000261256,0.117199,-0.210958,0.000000152308,64.304017,-11.291219)">
<stop offset="0" style="stop-color:rgb(0%,0%,0%);stop-opacity:0.313726;"/>
<stop offset="0.222222" style="stop-color:rgb(0%,0%,0%);stop-opacity:0.27451;"/>
<stop offset="1" style="stop-color:rgb(0%,0%,0%);stop-opacity:0;"/>
</radialGradient>
<linearGradient id="linear1" gradientUnits="userSpaceOnUse" x1="24.705" y1="43.938999" x2="24.953745" y2="3.841079" gradientTransform="matrix(0.936467,0,0,0.936467,1.438695,0.747122)">
<stop offset="0" style="stop-color:rgb(40.000001%,73.333335%,41.568628%);stop-opacity:1;"/>
<stop offset="1" style="stop-color:rgb(50.588238%,78.039217%,51.764709%);stop-opacity:1;"/>
</linearGradient>
<linearGradient id="linear2" gradientUnits="userSpaceOnUse" x1="18" y1="34" x2="18" y2="24" gradientTransform="matrix(0.945487,0,0,0.945487,1.196399,-3.730924)">
<stop offset="0" style="stop-color:rgb(15.294118%,16.862746%,17.647059%);stop-opacity:1;"/>
<stop offset="1" style="stop-color:rgb(20%,22.352941%,24.313726%);stop-opacity:1;"/>
</linearGradient>
<linearGradient id="linear3" gradientUnits="userSpaceOnUse" x1="18" y1="34" x2="18" y2="24" gradientTransform="matrix(-0.945487,0,0,0.945487,46.433151,-3.730924)">
<stop offset="0" style="stop-color:rgb(15.294118%,16.862746%,17.647059%);stop-opacity:1;"/>
<stop offset="1" style="stop-color:rgb(20%,22.352941%,24.313726%);stop-opacity:1;"/>
</linearGradient>
</defs>
<g id="surface1">
<path style=" stroke:none;fill-rule:nonzero;fill:url(#linear0);" d="M 22.824219 41.902344 L 24.808594 41.902344 L 24.808594 44.109375 L 22.824219 44.109375 Z M 22.824219 41.902344 "/>
<path style=" stroke:none;fill-rule:nonzero;fill:url(#radial0);" d="M 24.808594 42.050781 L 28.777344 42.050781 L 28.777344 40.066406 L 24.808594 40.066406 Z M 24.808594 42.050781 "/>
<path style=" stroke:none;fill-rule:nonzero;fill:url(#radial1);" d="M 22.824219 42.050781 L 18.851562 42.050781 L 18.851562 44.035156 L 22.824219 44.035156 Z M 22.824219 42.050781 "/>
<path style=" stroke:none;fill-rule:nonzero;fill:url(#radial2);" d="M 22.824219 42.050781 L 18.851562 42.050781 L 18.851562 40.066406 L 22.824219 40.066406 Z M 22.824219 42.050781 "/>
<path style=" stroke:none;fill-rule:nonzero;fill:url(#radial3);" d="M 24.808594 42.050781 L 28.777344 42.050781 L 28.777344 44.035156 L 24.808594 44.035156 Z M 24.808594 42.050781 "/>
<path style=" stroke:none;fill-rule:nonzero;fill:url(#linear1);" d="M 8.929688 18.988281 C 8.929688 28.625 16.886719 41.953125 23.914062 41.953125 C 30.53125 41.953125 38.898438 28.625 38.898438 18.988281 C 38.898438 9.351562 32.1875 4.492188 23.914062 4.492188 C 15.640625 4.492188 8.929688 9.351562 8.929688 18.988281 Z M 8.929688 18.988281 "/>
<path style=" stroke:none;fill-rule:nonzero;fill:rgb(100%,100%,100%);fill-opacity:0.392157;" d="M 23.914062 4.492188 C 15.640625 4.492188 8.929688 9.351562 8.929688 18.988281 C 8.929688 19.113281 8.933594 19.238281 8.933594 19.363281 C 9.125 10 15.757812 5.28125 23.914062 5.28125 C 32.070312 5.28125 38.703125 10 38.894531 19.359375 C 38.894531 19.234375 38.898438 19.109375 38.898438 18.988281 C 38.898438 9.351562 32.1875 4.492188 23.914062 4.492188 Z M 23.914062 4.492188 "/>
<path style=" stroke:none;fill-rule:nonzero;fill:rgb(0%,0%,0%);fill-opacity:0.235294;" d="M 38.890625 18.445312 C 38.609375 28.035156 30.417969 40.910156 23.914062 40.910156 C 17.007812 40.910156 9.207031 28.039062 8.9375 18.449219 C 8.933594 18.628906 8.929688 18.808594 8.929688 18.988281 C 8.929688 28.625 16.886719 41.953125 23.914062 41.953125 C 30.53125 41.953125 38.898438 28.625 38.898438 18.988281 C 38.898438 18.804688 38.894531 18.625 38.890625 18.445312 Z M 38.890625 18.445312 "/>
<path style="fill:none;stroke-width:3;stroke-linecap:butt;stroke-linejoin:miter;stroke:rgb(12.941177%,12.941177%,12.941177%);stroke-opacity:1;stroke-miterlimit:4;" d="M 95.240905 -12.477673 C 95.240905 90.304178 180.107801 232.45727 255.058976 232.45727 C 325.63557 232.45727 414.877048 90.304178 414.877048 -12.477673 C 414.877048 -115.259525 343.30055 -167.087909 255.058976 -167.087909 C 166.817403 -167.087909 95.240905 -115.259525 95.240905 -12.477673 Z M 95.240905 -12.477673 " transform="matrix(0.093759,0,0,0.093759,0,20.158175)"/>
<path style=" stroke:none;fill-rule:nonzero;fill:url(#linear2);" d="M 12.710938 19.257812 C 15.167969 18.742188 17.835938 19.429688 19.746094 21.3125 C 21.65625 23.195312 22.351562 25.824219 21.832031 28.25 C 19.371094 28.765625 16.703125 28.078125 14.792969 26.195312 C 12.882812 24.3125 12.1875 21.683594 12.710938 19.257812 Z M 12.710938 19.257812 "/>
<path style=" stroke:none;fill-rule:nonzero;fill:url(#linear3);" d="M 34.921875 19.257812 C 32.460938 18.742188 29.796875 19.429688 27.882812 21.3125 C 25.972656 23.195312 25.28125 25.824219 25.800781 28.25 C 28.257812 28.765625 30.925781 28.078125 32.835938 26.195312 C 34.746094 24.3125 35.441406 21.683594 34.921875 19.257812 Z M 34.921875 19.257812 "/>
<path style=" stroke:none;fill-rule:nonzero;fill:rgb(100%,100%,100%);fill-opacity:0.196078;" d="M 29.769531 21.214844 C 29.230469 21.070312 28.644531 21.261719 28.226562 21.78125 C 27.808594 22.300781 27.65625 23.027344 27.769531 23.699219 C 28.308594 23.839844 28.894531 23.652344 29.3125 23.128906 C 29.730469 22.609375 29.882812 21.882812 29.769531 21.214844 Z M 29.769531 21.214844 "/>
<path style=" stroke:none;fill-rule:nonzero;fill:rgb(100%,100%,100%);fill-opacity:0.196078;" d="M 15.890625 21.214844 C 15.351562 21.070312 14.769531 21.261719 14.347656 21.78125 C 13.929688 22.300781 13.777344 23.027344 13.890625 23.699219 C 14.429688 23.839844 15.015625 23.652344 15.433594 23.128906 C 15.851562 22.609375 16.003906 21.882812 15.890625 21.214844 Z M 15.890625 21.214844 "/>
<path style="fill:none;stroke-width:3;stroke-linecap:butt;stroke-linejoin:miter;stroke:rgb(12.941177%,12.941177%,12.941177%);stroke-opacity:1;stroke-miterlimit:4;" d="M 135.570387 -9.602948 C 161.776218 -15.102423 190.231834 -7.769789 210.604888 12.311626 C 230.977943 32.393042 238.393901 60.432031 232.852764 86.30456 C 206.60527 91.804035 178.149654 84.471402 157.7766 64.389986 C 137.403545 44.308571 129.987587 16.269582 135.570387 -9.602948 Z M 135.570387 -9.602948 " transform="matrix(0.093759,0,0,0.093759,0,20.158175)"/>
<path style="fill:none;stroke-width:3;stroke-linecap:butt;stroke-linejoin:miter;stroke:rgb(12.941177%,12.941177%,12.941177%);stroke-opacity:1;stroke-miterlimit:4;" d="M 372.464431 -9.602948 C 346.216938 -15.102423 317.802985 -7.769789 297.388268 12.311626 C 277.015213 32.393042 269.640917 60.432031 275.182055 86.30456 C 301.387886 91.804035 329.843502 84.471402 350.216556 64.389986 C 370.58961 44.308571 378.005569 16.269582 372.464431 -9.602948 Z M 372.464431 -9.602948 " transform="matrix(0.093759,0,0,0.093759,0,20.158175)"/>
</g>
</svg>
